!!!OTL: Wer ? (112), S. 266f
!!!id: T0275
**kern
*clefG2
*k[]
*G:
{8d
=1
8g
8g
8g
8g
=2
4g
8r
8a
=3
8b
8b
8b
8b
=4
4b}
4r
=5
{4dd
8dd
8dd
=6
8ee
8dd
8cc
8b
=7
4b
4a
=8
4a}
4r
=9
{4g
8b
8a
=10
4g
4r
=11
4g
8b
8a
=12
4g}
4r
=13
{4ee
8ee
8ee
=14
4dd
8cc
8cc
=15
4b
8dd
8dd
=16
4a}
4r
=17
{8dd
8dd
8dd
8dd
=18
4dd
8cc
8b
=19
8b
8b
8dd
8b
=20
4a}
4r
=21
{4g
8b
8a
=22
4g
4g
=23
8ee
8ee
8ee
8ee
=24
4dd}
4r
=25
{4cc
4cc
=26
4b
8b
8b
=27
4a
4a
=28
4g}
8r
==
*-
!!!minrhy: 8
!!!meters: 2/4 ]  ZZ[7
!!!cut: Wer ? (112), S. 266f
!!!reg: Luxemburg
!!!trd: Singendes Volk, Esch-Alzette 1937 posth.
!!!rhy1: X  XXXX  X_0X  XXXX  X_0_
!!!rhy2: X_XX  XXXX  X_X_  X_0_
!!!key: T0275  08  G 2/4 ]  ZZ[7
!!!mod: SECHSTONSKALA DUR ?]  AMBITUS[9
!!!kad: 3212251
!!!akz: 1133_5632_1111_6532_5532_1165_4321_
!!!fot: 'a__b__c__d__bw_cw_bs"
!!!for: 'a__b__c__d__e__f__g__
!!!fok: '/__\__^__\__\__~a_\__
!! PHRAS[VORWIEGEND VOLLTAKTIG]
!!!fkt: Liebeslieder
!!!bem: Godbringen, mitgeteilt: hhh Heinrich Godefroid (Lehrer)
!! THILL, Mathias:
!! PR[28] 2K[5] 2G[10] 3K[8] 3G[10] 4A[3] 4Ü[0] 5A[3] 6K[0] 6G[0]
!! 7K[0] 7G[0] 8A[0] MEHR[0] SI[38] ABS[39] SR[15] SP[23]
!! ST[8] 2k[3] 2g[18] 3k[3] 3g[3] 4d[0] 4ü[3] 5d[5] 6k[0] 6g[0]
!! 7k[0] 7g[0] 8d[0] mehr[0] si[33] dm[+5] sr[21] sp[13]
!! 1F[64] 2F[27] 3F[0] 4F[0] LF[0] 2P[9] 3P[0] 4P[0] TRI[0] DF[3] AB[44]
!! TF[0] U3K[0] U3[0] U4[0] U4Ü[0] U5[5] U6K[0] U6[0] U7K[0] U7[5]
!! N1[18] N2K[0] N2[25] N3K[0] N3[33] N4[10] N4Ü[0] N5[3] N6K[0] N6[3]
!!!n7k: 0] N7[0] O1[0] O2K[0] O2[0] O3K[0] O3[0] HÖ[0
